packages/match-icons/product/svg/twilio-for-salesforce.svg

<svg fill="none" height="32" viewBox="0 0 32 32" width="32" xmlns="http://www.w3.org/2000/svg"><path d="m8.00002 29.53c-.29385-.0001-.58406-.065-.85-.19-.34374-.1614-.63444-.4173-.83809-.7378-.20365-.3206-.31183-.6924-.31191-1.0722v-3.78c-1.72312-.4459-3.24832-1.4537-4.33425-2.8639-1.085937-1.4103-1.6705715-3.1424-1.66139105-4.9222.00918045-1.7799.61165205-3.5058 1.71207105-4.9048 1.10042-1.39894 2.63595-2.39097 4.36357-2.81909.89632-1.8706 2.30328-3.44965 4.05848-4.55495 1.7553-1.10529 3.7873-1.69177 5.8615-1.69177 2.0743 0 4.1063.58648 5.8615 1.69177 1.7552 1.1053 3.1622 2.68435 4.0585 4.55495 1.8915.47401 3.5447 1.6225 4.6489 3.22959 1.1043 1.6072 1.5835 3.5623 1.3477 5.4979s-1.1704 3.7185-2.6282 5.0135c-1.4579 1.295-3.3384 2.013-5.2884 2.019-1.185 1.5889-2.9522 2.6424-4.9134 2.9293s-3.9561-.2164-5.5466-1.3993l-4.25998 3.54c-.35982.2982-.81269.4609-1.28.46zm7.99998-25.52999c-1.7694.00031-3.4995.5222-4.974 1.50044-1.47446.97823-2.62785 2.36939-3.31598 3.99956-.06461.15492-.16718.29108-.29825.39594-.13107.10485-.28642.17505-.45175.20405-1.54882.2719-2.92899 1.141-3.84352 2.4202s-1.29031 2.8663-1.04648 4.4198c.18863 1.196.73468 2.3069 1.56638 3.1868.83171.8799 1.91015 1.4876 3.09362 1.7432l.33.05c.2483.0319.47781.1491.64927.3315s.27423.4187.29073.6685v4.61l4.90998-4.09c.1825-.1603.4171-.2487.66-.2487s.4775.0884.66.2487c.5844.5608 1.2858.9851 2.0537 1.2423.768.2572 1.5834.3411 2.3877.2454.8042-.0956 1.5773-.3683 2.2635-.7985.6862-.4301 1.2686-1.007 1.7051-1.6892.0973-.1528.2343-.2763.3963-.3573.1621-.0811.3431-.1165.5237-.1027 1.1145.078 2.2286-.1567 3.2168-.6776.9883-.521 1.8115-1.3075 2.3769-2.271s.8506-2.0657.8235-3.1826c-.0272-1.1168-.3656-2.2039-.9772-3.1388-.4525-.6857-1.041-1.2712-1.7291-1.7202-.688-.4489-1.461-.7518-2.2709-.8898-.1653-.029-.3207-.0992-.4517-.20405-.1311-.10486-.2337-.24102-.2983-.39594-.6854-1.62391-1.8327-3.0108-3.2993-3.98855-1.4666-.97774-3.188-1.5033-4.9507-1.51145z" fill="#394762"/></svg>

<svg width="32" height="32" viewBox="0 0 32 32" fill="none" xmlns="http://www.w3.org/2000/svg">
<path d="M8.00002 29.53C7.70617 29.5299 7.41596 29.465 7.15002 29.34C6.80628 29.1786 6.51558 28.9227 6.31193 28.6022C6.10828 28.2816 6.0001 27.9098 6.00002 27.53V23.75C4.2769 23.3041 2.7517 22.2963 1.66577 20.8861C0.579833 19.4758 -0.0048015 17.7437 0.00437895 15.9639C0.0135594 14.184 0.616031 12.4581 1.71645 11.0591C2.81687 9.66016 4.3524 8.66813 6.08002 8.24001C6.97634 6.36941 8.3833 4.79036 10.1385 3.68506C11.8938 2.57977 13.9258 1.99329 16 1.99329C18.0743 1.99329 20.1063 2.57977 21.8615 3.68506C23.6167 4.79036 25.0237 6.36941 25.92 8.24001C27.8115 8.71402 29.4647 9.86251 30.5689 11.4696C31.6732 13.0768 32.1524 15.0319 31.9166 16.9675C31.6808 18.9031 30.7462 20.686 29.2884 21.981C27.8305 23.276 25.95 23.994 24 24V24C22.815 25.5889 21.0478 26.6424 19.0866 26.9293C17.1254 27.2162 15.1305 26.7129 13.54 25.53L9.28002 29.07C8.9202 29.3682 8.46733 29.5309 8.00002 29.53ZM16 4.00001C14.2306 4.00032 12.5005 4.52221 11.026 5.50045C9.55154 6.47868 8.39815 7.86984 7.71002 9.50001C7.64541 9.65493 7.54284 9.79109 7.41177 9.89595C7.2807 10.0008 7.12535 10.071 6.96002 10.1C5.4112 10.3719 4.03103 11.241 3.1165 12.5202C2.20197 13.7994 1.82619 15.3865 2.07002 16.94C2.25865 18.136 2.8047 19.2469 3.6364 20.1268C4.46811 21.0067 5.54655 21.6144 6.73002 21.87L7.06002 21.92C7.30832 21.9519 7.53783 22.0691 7.70929 22.2515C7.88075 22.4339 7.98352 22.6702 8.00002 22.92V27.53L12.91 23.44C13.0925 23.2797 13.3271 23.1913 13.57 23.1913C13.8129 23.1913 14.0475 23.2797 14.23 23.44C14.8144 24.0008 15.5158 24.4251 16.2837 24.6823C17.0517 24.9395 17.8671 25.0234 18.6714 24.9277C19.4756 24.8321 20.2487 24.5594 20.9349 24.1292C21.6211 23.6991 22.2035 23.1222 22.64 22.44C22.7373 22.2872 22.8743 22.1637 23.0363 22.0827C23.1984 22.0016 23.3794 21.9662 23.56 21.98C24.6745 22.058 25.7886 21.8233 26.7768 21.3024C27.7651 20.7814 28.5883 19.9949 29.1537 19.0314C29.7191 18.0679 30.0043 16.9657 29.9772 15.8488C29.95 14.732 29.6116 13.6449 29 12.71V12.71C28.5475 12.0243 27.959 11.4388 27.2709 10.9898C26.5829 10.5409 25.8099 10.238 25 10.1C24.8347 10.071 24.6793 10.0008 24.5483 9.89595C24.4172 9.79109 24.3146 9.65493 24.25 9.50001C23.5646 7.8761 22.4173 6.48921 20.9507 5.51146C19.4841 4.53372 17.7627 4.00816 16 4.00001Z" fill="#394762"/>
</svg>
